X:11
T:Blackthorn Stick No. 2
Z: id:dc-jig-8
M:6/8
L:1/8
K:G Major
D|GED DED|GFG c2e|dBG GAB|AGE E2D|!
GED DED|GFG c2e|dBG GAB|AGF G2:|!
d|gdB GBd|gdB c2e|dBG GAB|AGE E2D|!
[1 gdB GBd|gdB c2e|dBG GAB|AGF G2:|!
[2 GED EDE|GFG c2e|dBG GAB|AGF G2|]!